src/main/resources/icons/RubyIcons/icons/rails/rails_server_run_configuration.svg

<svg xmlns="http://www.w3.org/2000/svg" width="16" height="16" viewBox="0 0 16 16">
  <g fill="none" fill-opacity=".7" fill-rule="evenodd">
    <path fill="#F26522" d="M3.5232 8.0747L2.0252 7.1837 1.0002 9.4517 2.5102 10.2837C2.8212 9.4727 3.1612 8.7337 3.5232 8.0747M10.377 2.392L9.755 1 8 1.333 8.703 2.717C9.196 2.53 9.746 2.411 10.377 2.392M13.641 3.251C13.642 3.253 13.644 3.254 13.645 3.256L13.45 1.416 12 1 12.219 2.431C12.668 2.592 13.12 2.836 13.641 3.251M6.6218 4.1265L5.4718 2.8735 3.8418 4.2975 5.1828 5.6305C5.6878 5.0195 6.1808 4.5205 6.6218 4.1265M13.6707 6.9214C13.5737 6.9054 13.4777 6.9034 13.3817 6.8984L13.5457 7.9754 14.6397 7.9754 14.5527 7.1584C14.4827 7.1374 13.8687 6.9524 13.6707 6.9214M11.8787 7.313C11.6857 7.461 11.5187 7.624 11.3567 7.789L11.9637 8.985 12.9477 7.975 12.5057 6.985C12.2817 7.056 12.0737 7.164 11.8787 7.313M9.6794 14.2329L11.3564 14.8839 11.1514 12.6079 9.7994 11.8039C9.7264 12.5219 9.6904 13.3289 9.6794 14.2329M10.0134 10.4351L11.0074 11.4231 11.5304 9.4781 10.7184 8.5921C10.3944 9.1181 10.1714 9.7311 10.0134 10.4351"/>
    <path fill="#F26522" d="M15.0248,5.2503394 C14.6530852,4.83071014 14.2633356,4.45385861 13.8555514,4.12487742 C13.0449927,3.46895206 12.4408308,3.24895226 11.5400987,3.1358968 C10.6002913,3.01876727 9.31782505,3.28663741 8.42711214,3.77756291 C7.0414474,4.54246965 4.34826821,6.78524547 2.81632216,11.35126 C2.40453025,12.5806108 2.28630289,13.92098 2.0248,15.1085715 C2.0248,15.1085715 9.09339345,15.1044975 9.09339345,15.1024604 C9.09339345,10.7829272 9.48314297,8.42302182 11.5771699,6.78524547 C12.2614859,6.24848668 13.0069195,6.15580157 13.7713896,6.27700517 C13.997825,6.31367181 14.7462644,6.54181976 14.7462644,6.54181976 L15.0248,5.2503394 Z"/>
  </g>
</svg>

<svg xmlns="http://www.w3.org/2000/svg" width="16" height="16" viewBox="0 0 16 16"><rect id="frame" width="16" height="16" fill="none"/><g fill="#F26522" fill-opacity=".7" fill-rule="evenodd"><path d="M3.523 8.075l-1.498-.891L1 9.452l1.51.832a17.94 17.94 0 0 1 1.013-2.21m6.854-5.682L9.755 1 8 1.333l.703 1.384a5.094 5.094 0 0 1 1.674-.325m3.264.859l.004.005-.195-1.84L12 1l.219 1.431c.449.161.901.405 1.422.82m-7.02.876l-1.15-1.253-1.63 1.424L5.184 5.63c.505-.61.998-1.11 1.439-1.503M13.67 6.92c-.097-.016-.193-.018-.29-.023l.165 1.077h1.094l-.087-.817c-.07-.02-.684-.206-.882-.237m-1.792.392c-.193.148-.36.311-.522.476l.607 1.196.984-1.01-.442-.99a2.037 2.037 0 0 0-.627.328m-2.2 6.92l1.677.65-.205-2.275-1.352-.804a27.653 27.653 0 0 0-.12 2.429m.334-3.798l.994.988.523-1.945-.812-.886c-.324.526-.547 1.14-.705 1.843"/><path d="M15.025 5.25a9.734 9.734 0 0 0-1.17-1.125c-.81-.656-1.414-.876-2.315-.99-.94-.116-2.222.152-3.113.643-1.386.764-4.079 3.007-5.61 7.573-.412 1.23-.53 2.57-.792 3.758 0 0 7.068-.005 7.068-.007 0-4.32.39-6.679 2.484-8.317.684-.537 1.43-.63 2.194-.508.227.037.975.265.975.265l.279-1.292z"/></g></svg>
